icon-themes/breeze_svg/cmd/32/connectorline.svg

<svg viewBox="0 0 32 32" xmlns="http://www.w3.org/2000/svg"><path d="m7 4c-1.6568542 0-3 1.3431458-3 3s1.3431458 3 3 3c.4469345-.0009132.8880181-.1016751 1.2910156-.2949219l14.0039064 14.0039059c-.193247.402998-.294009.844081-.294922 1.291016 0 1.656854 1.343146 3 3 3s3-1.343146 3-3-1.343146-3-3-3c-.446935.000913-.888018.101675-1.291016.294922l-14.0039059-14.0039064c.1932468-.4029975.2940087-.8440811.2949219-1.2910156 0-1.6568542-1.3431458-3-3-3zm0 2c.5522847 0 1 .4477153 1 1s-.4477153 1-1 1-1-.4477153-1-1 .4477153-1 1-1zm18 18a1 1 0 0 1 1 1 1 1 0 0 1 -1 1 1 1 0 0 1 -1-1 1 1 0 0 1 1-1z" fill="#4d4d4d"/></svg>

<svg xmlns="http://www.w3.org/2000/svg" viewBox="0 0 32 32">
 <path 
     style="fill:#4d4d4d" 
     d="M 7 4 C 5.3431458 4 4 5.3431458 4 7 C 4 8.6568542 5.3431458 10 7 10 C 7.4469345 9.9990868 7.8880181 9.8983249 8.2910156 9.7050781 L 22.294922 23.708984 C 22.101675 24.111982 22.000913 24.553065 22 25 C 22 26.656854 23.343146 28 25 28 C 26.656854 28 28 26.656854 28 25 C 28 23.343146 26.656854 22 25 22 C 24.553065 22.000913 24.111982 22.101675 23.708984 22.294922 L 9.7050781 8.2910156 C 9.8983249 7.8880181 9.9990868 7.4469345 10 7 C 10 5.3431458 8.6568542 4 7 4 z M 7 6 C 7.5522847 6 8 6.4477153 8 7 C 8 7.5522847 7.5522847 8 7 8 C 6.4477153 8 6 7.5522847 6 7 C 6 6.4477153 6.4477153 6 7 6 z M 25 24 A 1 1 0 0 1 26 25 A 1 1 0 0 1 25 26 A 1 1 0 0 1 24 25 A 1 1 0 0 1 25 24 z "
     />
</svg>
